Papirus/16x16/apps/org.kde.karp.svg

<svg width="16" height="16" version="1.1" xmlns="http://www.w3.org/2000/svg">
 <path d="m2.00001 3.42857v12.57143h11.07689c0.5114 0 0.9231-0.5473 0.9231-1.2273v-10.11683c0-0.67995-0.4117-1.2273-0.9231-1.2273z" style="fill:#a80000"/>
 <path d="M 2.00001,-2e-6 V 15 H 13.0769 C 13.5883,15 14,14.2558 14,13.5571 V 1.26112 C 14,0.56246 13.5883,-2e-6 13.0769,-2e-6 Z" style="fill:#e4e4e4"/>
 <path d="m2.00001-2e-6v14h11.07689c0.5114 0 0.9231-0.694587 0.9231-1.346706v-11.476247c0-0.65208254-0.4117-1.177047-0.9231-1.177047z" style="fill:#c40f0f"/>
 <path d="m2-2.02907e-6 0.3434987 1.0608288c1.0374698 3.1667114 4.1148005 6.5331109 5.5434915 5.8500118-0.9157836 0.0677658-2.6803608-3.8298794-2.6803608-3.8298794s4.4639693 2.7463002 2.6968283 3.8192612c0.268485-0.0302954 0.5390787-0.1940285 0.7946836-0.5149505 1.0913698-1.3904486-0.8881686-4.3569463-4.141593-6.3835069z" style="fill:#ff5c5c;stop-color:#000000"/>
 <path d="m3.00001-2e-6h-1v15.806102l1 0.1939z" style="fill:#a80000"/>
 <path d="m11.08515 3.7889422 0.363216-0.5187243c0.200672-0.2865884 0.595959-0.3562885 0.882547-0.1556174l0.778088 0.544823c0.286588 0.2006708 0.356289 0.5959601 0.155617 0.8825489l-0.363214 0.5187243z" style="fill:#999999"/>
 <path d="M 6.9077682,12.661883 6,12.026258 v -0.973742 l 1.8209406,1.271251 z" style="fill:#c4c4c4"/>
 <path d="m6 13v-0.973742l0.9131682 0.635625z" fill="#424048"/>
 <path d="M 10.722014,4.3080462 6,11.05178 l 0.4668658,0.326906 0.051808,0.03699 0.7786057,0.544474 0.5178585,0.364034 4.722683,-6.7446914 z" style="fill:#999999"/>
 <path d="m10.721953 4.3077664 0.363197-0.5187254 1.816272 1.2717543-0.363487 0.5188332z" style="fill:#c4c4c4"/>
</svg>

<svg xmlns="http://www.w3.org/2000/svg" width="16" height="16" version="1.1">
 <path style="fill:#a80000" d="M 2,3 V 16 H 13.077 C 13.588,16 14,15.453 14,14.773 V 4.2273 C 14,3.5473 13.588,3 13.077,3 Z"/>
 <path style="fill:#e4e4e4" d="M 2.5,11 V 15 H 13.077 C 13.588,15 14,14.256 14,13.557 V 12 L 13,11 Z"/>
 <path style="fill:#c40f0f" d="M 2,0 V 14 H 13.077 C 13.588,14 14,13.305 14,12.653 V 1.177 C 14,0.52496 13.588,0 13.077,0 Z"/>
 <path style="fill:#ff5c5c" d="M 2,0 2.3435,1.0608 C 3.381,4.2275 6.4583,7.5939 7.887,6.9108 6.9712,6.9786 5.2066,3.081 5.2066,3.081 5.2066,3.081 9.6706,5.8273 7.9035,6.9002 8.1719,6.8699 8.4425,6.7062 8.6981,6.3853 9.7895,4.9948 7.81,2.0283 4.5565,0.00176 Z"/>
 <path style="fill:#a80000" d="M 3,0 H 2 V 15.806 L 3,16 Z"/>
 <path style="fill:#c4c4c4" d="M 10.722,4.3078 11.085,3.789 12.3,4 12.901,5.0608 12.538,5.5796 11,5.8571 Z"/>
 <path style="fill:#999999" d="M 11.085,3.7889 11.448,3.2702 C 11.649,2.9836 12.044,2.9139 12.331,3.1146 L 13.109,3.6594 C 13.396,3.8601 13.465,4.2554 13.265,4.542 L 12.901,5.0607 Z"/>
 <path style="fill:#c4c4c4" d="M 6.9078,12.662 6.3366,12.519 6,12.026 V 11.053 L 7,11.571 7.8209,12.324 Z"/>
 <path fill="#424048" d="M 6,13 V 12.026 L 6.9132,12.662 Z"/>
 <path style="fill:#999999" d="M 10.722,4.308 6,11.052 6.4669,11.379 6.5187,11.416 7.2973,11.96 7.8151,12.324 12.538,5.5795 Z"/>
</svg>
